KINDER
CUT[SIPP SAPP SUNNNE]
REG[Europa, Mitteleuropa, Deutschland, Paderborn]
KEY[K0925  16  G 2/4]
MEL[  3__2__  1__-5_
    -5-5  3_3_2_2_  1__-5_
    -5_  3_3_2_2_  1__-5__
    -5_-5_-5_-5_  3_3_2_2_  1__-5__ //] >>
FCT[Kinder - Lied, Pflanzen]
